X:16
T: Over the Hills - Sherbourne
M: 4/4
L: 1/8 
R: Rag Morris
K: G
C: Trad 
Z: ABC by Rag (2009) & Mackin
W: Music formula for morris dance: (AB)4B
W: Warning sneaky extra B part.  
r:16
[P:A] "G" GABA GABA | G2 "C" E2 E2 "D" D2 | "G" GABA GABA |"C" c2 A2 AcBA |
"G" GABA GABA | G2 E2 "C" c4 | E2 DC D2 B2 | c2 A2 "D" A4 |
P:B
 "G" d2 dc B2 BA | G2 "C" E2 E2 "D" D2 | "G" d2 dc B2 cd | "C" e2 A2 "D" A2 Bc|
"G" d2 dc B2 BA | G2 E2 "C" c4 | E2 DC D2 B2 | c2 A2 "D" A4 |
